X: 12
T: Fitzmaurice's Hornpipe
S: Fitzmaurice Collection
N: 062211
Z: BB
L: 1/16
M: 2/4
R: hornpipe
Q: 1/4=70
K: D
AG | FADD Dfed | ceAA Agfe | fadf gbeg | fdec dBAG |
FADD Dfed | ceAA Agfe | fadf egce | d2d2d2 :|
de | f2fe fdBz | gfeg fdBz | dBgf edce | d2F2F2 de |
f2fe fdBz | geaf fdBc | dBgf edce| d2d2d2 :|
%%%%%
